src/images/icons/home.svg

<svg width="470" height="407" viewBox="0 0 470 407" fill="none" xmlns="http://www.w3.org/2000/svg">
<path d="M244.562 3.59378C241.79 1.4322 238.375 0.258301 234.859 0.258301C231.344 0.258301 227.929 1.4322 225.156 3.59378L0.625 178.672L20.0469 203.234L47.5 181.828V375.25C47.5165 383.533 50.8142 391.472 56.6712 397.329C62.5281 403.186 70.4671 406.484 78.75 406.5H391.25C399.533 406.484 407.472 403.186 413.329 397.329C419.186 391.472 422.483 383.533 422.5 375.25V181.969L449.953 203.375L469.375 178.813L244.562 3.59378ZM266.25 375.25H203.75V250.25H266.25V375.25ZM297.5 375.25V250.25C297.5 241.962 294.208 234.013 288.347 228.153C282.487 222.292 274.538 219 266.25 219H203.75C195.462 219 187.513 222.292 181.653 228.153C175.792 234.013 172.5 241.962 172.5 250.25V375.25H78.75V157.469L235 35.75L391.25 157.625V375.25H297.5Z" />
</svg>

<svg width="470" height="407" fill="black" xmlns="http://www.w3.org/2000/svg">
<path d="M244.562 3.594a15.779 15.779 0 0 0-19.406 0L.625 178.672l19.422 24.562L47.5 181.828V375.25a31.313 31.313 0 0 0 31.25 31.25h312.5a31.31 31.31 0 0 0 31.25-31.25V181.969l27.453 21.406 19.422-24.562L244.562 3.593ZM266.25 375.25h-62.5v-125h62.5v125Zm31.25 0v-125A31.247 31.247 0 0 0 266.25 219h-62.5a31.247 31.247 0 0 0-31.25 31.25v125H78.75V157.469L235 35.75l156.25 121.875V375.25H297.5Z"/>
</svg>
